!!!OTL: Women you gongchandang geilinglu
!!!ARE: Asia, China,ÿQinghai Huzhu
!! I, 215
!!!SCT: C1845
!!!YEM: Copyright 1995, estate of Helmut Schaffrath.
**kern
*ICvox
*Ivox
*M3/8
*k[b-e-a-]
*E-:
{4.cc
=1
16cc
16ee-
8.cc
16b-
=2
8g
8b-
8cc
=3
8g
8.f
16e-
=4
[4.f
=5
4.f]}
=6
{8c
8c
8c
=7
8f
8e-
16f
16e-
=8
8b-
8g
16g
16b-
=9
8g
8f
8e-
=10
[4.f
=11
4.f]}
=12
{4.cc
=13
16cc
16ee-
8.cc
16b-
=14
8g
8b-
8cc
=15
8g
8.f
16e-
=16
[4.f
=17
4.f]}
=18
{8c
8c
8c
=19
8f
8e-
16f
16e-
=20
8b-
8g
16g
16b-
=21
8g
8f
8e-
=22
[4.f
=23
4.f]}
=24
{4.cc
=25
16cc
16ee-
8.cc
16b-
=26
8g
8b-
8cc
=27
8g
8.f
16e-
=28
[4.f
=29
4.f]}
==
!!!AGN: Wuge, Anzhao
!! Tu
!!!ONB: ESAC (Essen Associative Code) Database: SENGANSU
!!!AMT: simple triple
!!!AIN: vox
!!!EED: Helmut Schaffrath
!!!EEV: 1.0
*-
!!!ONB: Tied note syntax fixed by Craig Sapp, 2004/05/03/
